!! 00000] TT[00
!! NN
!!!OTL: Chang yang ge
!!!ARE: Asia, China,ÿShandong, Wucheng
!! Ethnic Group: Han
!! III, 328
!!!SCT: C0302
!!!YEM: Copyright 1995, estate of Helmut Schaffrath.
**kern
*ICvox
*Ivox
!! Mixed meters:  2/4; 3/4
*M2/4
*k[b-e-]
*B-:
{8ccc
8ccc
4ddd
8ddd
8ddd}
=1
{8ddd
16ccc
16aa
8gg
8dd
=2
8gg
8bb-
16ddd
16ccc
8bb-
=3
4gg
8gg
8dd}
=4
{8ccc
8ccc
8ddd
16ddd
16ccc
=5
8ccc
16ccc
16aa
8gg
8dd}
=6
{16gg
16gg
16gg
16bb-
8ddd
16ddd
16ccc
=7
8ccc
16ddd
16fff
4gg}
=8
{8gg
16dd
16ff
16.gg
32ccc
16gg
16gg
=9
8ddd
16ddd
16fff
16ddd
16ccc
16bb-
16ccc}
=10
{8ddd
8ddd
16ddd
16ccc
16bb-
16ccc
=11
16.ddd
32fff
16aa
16gg
8gg
8dd}
=12
{8ccc
8ccc
8ddd
16ddd
16ccc
=13
8ccc
16ccc
16aa
8gg}
{16gg
16dd
=14
8gg
8bb-
8ddd
16ddd
16ccc
=15
8ccc
16ddd
16fff
4gg}
=16
*M3/4
{8ccc
8ccc
4ddd
8ddd
8ddd}
=17
*M2/4
{8ddd
16ccc
16aa
8gg
8dd
=18
8gg
8bb-
16ddd
16ccc
8bb-
=19
4gg
8gg
8dd}
=20
{8ccc
8ccc
8ddd
16ddd
16ccc
=21
8ccc
16ccc
16aa
8gg}
{16gg
16dd
=22
8gg
8bb-
8ddd
16ddd
16ccc
=23
8ccc
16ddd
16fff
4gg}
=24
{8ccc
8ccc
8ddd
16ddd
16ccc
=25
8ccc
16ccc
16aa
8gg}
{16gg
16dd
=26
8gg
8bb-
8ddd
16ddd
16ccc
=27
8ccc
16ddd
16fff
4gg}
==
!!!AGN: Wuge, Yangge. Xin minge
!! Tanzform. Anfangs sehr freier Rhythmus, dann relativ schnell.
!!    Dreiteiliges Lied. Strophen 1,2 werden auf Phrasen 1-4, Str. 3-7 auf
!!    Phr. 5-8 und Schlusswort - nicht als Strophe ausgezeichnet - auf ver-
!!    bleibende Phrasen. Die letzten 2 Takte der ersten beiden Teile werden
!!    jeweils bei den Uebergaengen zum naechsten Teil veraendert, in der Kodie-
!!    rung angegeben!). Die 1. Strophe endet:6__+1_+1_+3_+2_+1_7  6___6__3__
!!    Strophe 3,5, !): 6__.+1_+3_+2_+1_7_  6___6__3__
!!    Einige Verzierungen, Glissandi, Fermaten, Atemzeichen.
!!    Vor- und Zwischenspiele weggelassen.
!!!ONB: ESAC (Essen Associative Code) Database: CHINA
!!!AMT: irregular
!!!AIN: vox
!!!EED: Helmut Schaffrath
!!!EEV: 1.0
*-
